X:18502
T:Walzer - Walzer/Waltz/Valse
C:Joh. Stadlbauer,1880
B:5.Spielheft für Okarina, Brigitte Dumfart, Oberoesterreichisches Volksliedwerk 
A:Linz 
Z:abc transcription Simon Wascher
N:please mail errors to simon.wascher@chello.at
M:3/4
L:1/4
K:D
A/A/|A2B|A2B|A3|d3|
c2B|A2G|B2A|F2A/A/|
A2B|A2B|A3|f3|
e2A|c2A|dd/d/d|d2:|
|:z|f2e|d/d/dA|c2B|G3|
c2B|G/G/Gc|B2A|F2A|
f2e|d/d/dA|c2B|G3|
GcB|B>AA|Afe|d2:|
|:z|F3|FG>F|F3|FFG|
A3|AB>A|A3|ABA|
G2G|B2G|F2F|A2F|
E2E|G2E|F2F|FBA|
G2G|B2G|F2F|A2F|
E2E|G2E|F>FF|F2:|


